X:1
T:Title
%%score { 1 | 2 }
L:1/8
M:6/8
K:Ab
V:1 treble nm="Grand Piano"
V:2 bass 
V:1
 z3 z2[Q:1/4=87] [CE] | [Ec]>[=D_c][E=c] [CA][_DG][EA] | BAF [CE]2 [CE] | A>GA [=Dc][DB][DA] | %4
 BBc B2 E | [Ec]>[=D_c][E=c] [CA][_DG][EA] | BAF [Fd]2 [Fd] | c>cc cBA |[M:5/8] B3 [CA]2 | %9
[M:1/8] A |[M:3/4] B>B Bd cB | A3 c2 [EA] | B>B Bd cB | c3 e2 c | e>f e[Ec] [EB][EA] | %15
 BA F [Fd]2 [Fd] | c>c cc BA |[M:5/8] B3 [CA]2 |] %18
V:2
 z3 z2 [A,,A,] | [A,,A,]>[A,,A,][A,,A,] [A,,E,][B,,E,][C,A,] | %2
 [D,F,D][D,F,D][D,A,D] [A,,A,]2 [A,,A,] | [F,A,C]>[F,B,C][F,A,C] [B,,A,][B,,A,][B,,B,] | %4
 [E,G,E][E,G,E][E,A,E] [E,G,E]2 [E,G,] | [A,,A,]>[A,,A,][A,,A,] [A,,E,][B,,E,][C,A,] | %6
 [D,F,D][D,F,D][D,A,D] [D,A,]2 [D,A,] | [E,A,E]>[E,A,E][E,A,E] [E,A,E][E,G,D][E,A,C] | %8
[M:5/8] [E,G,D]3 [A,,A,]2 |[M:1/8] [A,C] |[M:3/4] [E,G,E]>[E,G,E] [E,G,E][E,B,E] [E,A,E][E,G,D] | %11
 [A,C]3 [A,E]2 [C,A,] | [E,G,E]>[E,G,E] [E,G,E][E,B,E] [E,A,E][E,G,E] | [A,E]3 [A,CE]2 [A,E] | %14
 [A,CA]>[A,DA] [A,CA][K:bass][A,,A,] [B,,G,][C,A,] | [D,F,D][D,F,D] [D,A,D] [D,A,]2 [D,A,] | %16
 [E,A,E]>[E,A,E] [E,A,E][E,A,E] [E,G,D][E,A,C] |[M:5/8] [E,G,D]3 [A,,A,]2 |] %18

